X:3032
T:Chuir Me/ Feisteas Ar Mo Theachsa
T:Bobby Casey's Hornpipe
T:Humours of Tullycrine, The
M:4/4
L:1/8
S:Ir-Trad; Juergen Gier, name from Henrik Norbeck, 4/97
K:ADor
A3 B cBcd|eaag ~e2dB|cA~A2 BAGF|GBde dBGE|A3 B cBcd|\
eaag ~e2dB|cA ~A2BAGA|1BA ~A2A3 E:|2BA ~A2A2cd||\
eaaa aged|eaaa aged|eggg gedg|eggg gedc|A3 B cBcd|\
eaag ~e2dB|cA ~A2BAGA|1BA ~A2A2cd:|2BA ~A2A3 E||


